apps/scalable/itch.svg

<?xml version="1.0" encoding="UTF-8" standalone="no"?>
<svg
   xmlns:dc="http://purl.org/dc/elements/1.1/"
   xmlns:cc="http://creativecommons.org/ns#"
   xmlns:rdf="http://www.w3.org/1999/02/22-rdf-syntax-ns#"
   xmlns:svg="http://www.w3.org/2000/svg"
   xmlns="http://www.w3.org/2000/svg"
   xmlns:sodipodi="http://sodipodi.sourceforge.net/DTD/sodipodi-0.dtd"
   xmlns:inkscape="http://www.inkscape.org/namespaces/inkscape"
   height="48"
   width="48"
   version="1.1"
   id="svg6"
   sodipodi:docname="itch.svg"
   inkscape:version="1.0.2 (e86c870879, 2021-01-15)">
  <metadata
     id="metadata12">
    <rdf:RDF>
      <cc:Work
         rdf:about="">
        <dc:format>image/svg+xml</dc:format>
        <dc:type
           rdf:resource="http://purl.org/dc/dcmitype/StillImage" />
        <dc:title></dc:title>
      </cc:Work>
    </rdf:RDF>
  </metadata>
  <defs
     id="defs10" />
  <sodipodi:namedview
     pagecolor="#ffffff"
     bordercolor="#666666"
     borderopacity="1"
     objecttolerance="10"
     gridtolerance="10"
     guidetolerance="10"
     inkscape:pageopacity="0"
     inkscape:pageshadow="2"
     inkscape:window-width="1920"
     inkscape:window-height="1031"
     id="namedview8"
     showgrid="false"
     inkscape:zoom="3.3440258"
     inkscape:cx="-102.05783"
     inkscape:cy="-13.433535"
     inkscape:window-x="0"
     inkscape:window-y="24"
     inkscape:window-maximized="1"
     inkscape:current-layer="svg6"
     inkscape:document-rotation="0" />
  <circle
     cx="23.940615"
     cy="31.534513"
     fill="#5e81ac"
     opacity=".99"
     r="13.232998"
     transform="matrix(1.75830584759 0 0 1.75830608345 -18.15909274367 -30.97874795549)"
     id="circle2"
     style="fill:#86c18a;fill-opacity:1" />
  <path
     d="M 12.196354,28.190418 V 38.704551 H 35.196021 V 28.190418"
     fill="none"
     stroke="#ffffff"
     stroke-linejoin="round"
     stroke-width="3.28567"
     id="path8"
     style="stroke:#ffffff;stroke-opacity:0.977359" />
  <path
     d="m 8.910687,22.276218 c 0,4.9285 9.857001,4.9285 9.857001,0 0,4.9285 9.856999,4.9285 9.856999,0 0,4.9285 9.857,4.9285 9.857,0 L 36.838854,10.776385 H 10.553521 Z"
     fill="#ffffff"
     id="path6"
     style="fill:#ffffffbff;fill-opacity:1;stroke-width:1.64283" />
  <circle
     cx="33.429817"
     cy="34.978462"
     fill="#ffffff"
     r="8.25"
     stroke="#ec725f"
     stroke-linecap="round"
     stroke-width="1.6"
     id="circle6"
     style="stroke:#86c18a;stroke-opacity:0.99215686;fill:#ffffff;fill-opacity:0.9921568" />
  <path
     d="m 28.701935,35.381263 c -0.499037,0.499037 -0.423447,1.236955 0,1.80155 l 2.702325,3.6031 c 0.423445,0.564597 1.302513,0.499037 1.80155,0 l 0.450387,-0.450387 c 0.736038,-0.736038 0.279239,-2.080178 0.327511,-3.802065 0.326444,-0.474878 0.719362,-0.87628 1.184803,-1.211277 1.818507,0.106005 2.862414,0.638604 3.89233,-0.391312 l 0.450388,-0.450389 c 0.499037,-0.499037 0.554878,-1.365445 0,-1.801549 l -3.53079,-2.774631 c -0.55488,-0.436101 -1.302513,-0.499037 -1.80155,0 l -0.52175,0.52175 -0.451332,0.451332 c -0.383726,0.383727 -0.341703,0.939896 -0.443299,1.355417 -0.177468,0.725843 -0.901999,1.43793 -1.795411,1.814306 -0.386826,0.162964 -0.989665,0.05864 -1.364394,0.433373 l -0.450861,0.450861 z m 5.161261,-3.139478 a 0.96352738,0.96352738 0 0 1 0.04775,-0.04678 0.96352738,0.96352738 0 0 1 1.360143,0.05671 l 0.0047,0.0047 a 0.96352738,0.96352738 0 0 1 -0.06333,1.360142 0.96352738,0.96352738 0 0 1 -1.360141,-0.06144 0.96352738,0.96352738 0 0 1 0.01087,-1.313354 z m -3.971255,4.329485 0.900775,-0.900775 0.675817,0.675817 0.675818,-0.675817 0.900774,0.900775 -0.675817,0.675817 0.675345,0.675345 -0.900775,0.900775 -0.675345,-0.675345 -0.675345,0.675345 -0.900775,-0.900775 0.675345,-0.675345 z m 6.43917,-4.482608 a 0.96352738,0.96352738 0 0 1 0.04775,-0.04678 0.96352738,0.96352738 0 0 1 1.360142,0.05671 l 0.0047,0.0047 a 0.96352738,0.96352738 0 0 1 -0.06427,1.360142 0.96352738,0.96352738 0 0 1 -1.359669,-0.06097 0.96352738,0.96352738 0 0 1 0.01134,-1.313826 z"
     fill="#ffffff"
     id="path4"
     style="fill:#86c18a;fill-opacity:0.992157;stroke-width:0.342199" />
</svg>

<?xml version="1.0" encoding="UTF-8" standalone="no"?>
<svg
   height="48"
   width="48"
   version="1.1"
   id="svg6"
   sodipodi:docname="itch.svg"
   inkscape:version="1.1.2 (0a00cf5339, 2022-02-04)"
   xmlns:inkscape="http://www.inkscape.org/namespaces/inkscape"
   xmlns:sodipodi="http://sodipodi.sourceforge.net/DTD/sodipodi-0.dtd"
   xmlns="http://www.w3.org/2000/svg"
   xmlns:svg="http://www.w3.org/2000/svg"
   xmlns:rdf="http://www.w3.org/1999/02/22-rdf-syntax-ns#"
   xmlns:cc="http://creativecommons.org/ns#"
   xmlns:dc="http://purl.org/dc/elements/1.1/">
  <metadata
     id="metadata12">
    <rdf:RDF>
      <cc:Work
         rdf:about="">
        <dc:format>image/svg+xml</dc:format>
        <dc:type
           rdf:resource="http://purl.org/dc/dcmitype/StillImage" />
      </cc:Work>
    </rdf:RDF>
  </metadata>
  <defs
     id="defs10" />
  <sodipodi:namedview
     pagecolor="#ffffff"
     bordercolor="#666666"
     borderopacity="1"
     objecttolerance="10"
     gridtolerance="10"
     guidetolerance="10"
     inkscape:pageopacity="0"
     inkscape:pageshadow="2"
     inkscape:window-width="1920"
     inkscape:window-height="1028"
     id="namedview8"
     showgrid="false"
     inkscape:zoom="13.376103"
     inkscape:cx="38.239837"
     inkscape:cy="37.342714"
     inkscape:window-x="0"
     inkscape:window-y="24"
     inkscape:window-maximized="1"
     inkscape:current-layer="svg6"
     inkscape:document-rotation="0"
     inkscape:pagecheckerboard="0" />
  <path
     id="circle2"
     style="opacity:0.99;fill:#a3be8c;fill-opacity:1"
     transform="matrix(1.75830584759 0 0 1.75830608345 -18.15909274367 -30.97874795549)"
     d="M 37.173613,31.534513 A 13.232998,13.232998 0 0 1 23.940615,44.767511 13.232998,13.232998 0 0 1 10.707617,31.534513 13.232998,13.232998 0 0 1 23.940615,18.301516 13.232998,13.232998 0 0 1 37.173613,31.534513 Z" />
  <path
     d="M 12.196354,28.190418 V 38.704551 H 35.196021 V 28.190418"
     fill="none"
     stroke="#ffffff"
     stroke-linejoin="round"
     stroke-width="3.28567"
     id="path8"
     style="stroke:#ffffff;stroke-opacity:0.977359" />
  <path
     d="m 8.910687,22.276218 c 0,4.9285 9.857001,4.9285 9.857001,0 0,4.9285 9.856999,4.9285 9.856999,0 0,4.9285 9.857,4.9285 9.857,0 L 36.838854,10.776385 H 10.553521 Z"
     fill="#ffffff"
     id="path6"
     style="fill:#ffffffbff;fill-opacity:1;stroke-width:1.64283" />
  <path
     id="circle6"
     style="fill:#ffffff;fill-opacity:0.992157;stroke:#a3be8c;stroke-width:1.6;stroke-linecap:round;stroke-opacity:0.99215686"
     d="m 41.679817,34.978462 a 8.25,8.25 0 0 1 -8.25,8.25 8.25,8.25 0 0 1 -8.25,-8.25 8.25,8.25 0 0 1 8.25,-8.25 8.25,8.25 0 0 1 8.25,8.25 z" />
  <path
     id="path4"
     style="fill:#a3be8c;fill-opacity:0.99215686;stroke-width:0.342199"
     d="M 35.058594 29.552734 C 34.739946 29.544867 34.429206 29.654778 34.179688 29.904297 L 33.65625 30.425781 L 33.205078 30.876953 C 32.821352 31.26068 32.863315 31.816901 32.761719 32.232422 C 32.584251 32.958265 31.860209 33.670499 30.966797 34.046875 C 30.579971 34.209839 29.978245 34.105736 29.603516 34.480469 L 29.152344 34.931641 L 28.701172 35.380859 C 28.202135 35.879896 28.277725 36.618999 28.701172 37.183594 L 31.404297 40.785156 C 31.827742 41.349753 32.706041 41.284193 33.205078 40.785156 L 33.65625 40.335938 C 34.392288 39.599899 33.936103 38.25509 33.984375 36.533203 C 34.310819 36.058325 34.702528 35.657263 35.167969 35.322266 C 36.986476 35.428271 38.030631 35.961557 39.060547 34.931641 L 39.511719 34.480469 C 40.010756 33.981432 40.066597 33.115792 39.511719 32.679688 L 35.980469 29.904297 C 35.703029 29.686246 35.377242 29.560601 35.058594 29.552734 z M 36.919922 31.794922 A 0.96352738 0.96352738 0 0 1 37.738281 32.097656 L 37.744141 32.103516 A 0.96352738 0.96352738 0 0 1 37.679688 33.462891 A 0.96352738 0.96352738 0 0 1 36.320312 33.402344 A 0.96352738 0.96352738 0 0 1 36.332031 32.087891 A 0.96352738 0.96352738 0 0 1 36.378906 32.041016 A 0.96352738 0.96352738 0 0 1 36.919922 31.794922 z M 34.451172 31.947266 A 0.96352738 0.96352738 0 0 1 35.271484 32.251953 L 35.275391 32.255859 A 0.96352738 0.96352738 0 0 1 35.212891 33.617188 A 0.96352738 0.96352738 0 0 1 33.851562 33.554688 A 0.96352738 0.96352738 0 0 1 33.863281 32.242188 A 0.96352738 0.96352738 0 0 1 33.910156 32.195312 A 0.96352738 0.96352738 0 0 1 34.451172 31.947266 z M 30.792969 35.669922 L 31.46875 36.345703 L 32.144531 35.669922 L 33.044922 36.570312 L 32.369141 37.248047 L 33.044922 37.921875 L 32.144531 38.822266 L 31.46875 38.148438 L 30.792969 38.822266 L 29.892578 37.921875 L 30.568359 37.248047 L 29.892578 36.570312 L 30.792969 35.669922 z " />
</svg>
